src/lib/packages/icons/src/assets/filled/document-list-check.svg

<svg width="24" height="24" viewBox="0 0 24 24" fill="none" xmlns="http://www.w3.org/2000/svg">
<path d="M21 11.5V18.25C21 18.94 20.44 19.5 19.75 19.5C19.06 19.5 18.5 18.94 18.5 18.25V10H19.5C20.328 10 21 10.672 21 11.5ZM19 21H6C4 21 3 20 3 18V6C3 4 4 3 6 3H14C16 3 17 4 17 6V19C17 20.105 17.896 21 19 21ZM8.03003 14.97C7.73703 14.677 7.26199 14.677 6.96899 14.97L6.49805 15.441C6.20405 15.177 5.75099 15.188 5.46899 15.47C5.17599 15.763 5.17599 16.238 5.46899 16.531L5.96899 17.031C6.11499 17.177 6.30702 17.251 6.49902 17.251C6.69102 17.251 6.88305 17.178 7.02905 17.031L8.02905 16.031C8.32305 15.737 8.32303 15.263 8.03003 14.97ZM8.03003 10.97C7.73703 10.677 7.26199 10.677 6.96899 10.97L6.49805 11.441C6.20405 11.177 5.75099 11.188 5.46899 11.47C5.17599 11.763 5.17599 12.238 5.46899 12.531L5.96899 13.031C6.11499 13.177 6.30702 13.251 6.49902 13.251C6.69102 13.251 6.88305 13.178 7.02905 13.031L8.02905 12.031C8.32305 11.737 8.32303 11.263 8.03003 10.97ZM8.03003 6.96997C7.73703 6.67697 7.26199 6.67697 6.96899 6.96997L6.49805 7.44098C6.20405 7.17698 5.75099 7.18797 5.46899 7.46997C5.17599 7.76297 5.17599 8.23801 5.46899 8.53101L5.96899 9.03101C6.11499 9.17701 6.30702 9.25098 6.49902 9.25098C6.69102 9.25098 6.88305 9.17801 7.02905 9.03101L8.02905 8.03101C8.32305 7.73701 8.32303 7.26297 8.03003 6.96997ZM14.75 16C14.75 15.586 14.414 15.25 14 15.25H10.5C10.086 15.25 9.75 15.586 9.75 16C9.75 16.414 10.086 16.75 10.5 16.75H14C14.414 16.75 14.75 16.414 14.75 16ZM14.75 12C14.75 11.586 14.414 11.25 14 11.25H10.5C10.086 11.25 9.75 11.586 9.75 12C9.75 12.414 10.086 12.75 10.5 12.75H14C14.414 12.75 14.75 12.414 14.75 12ZM14.75 8C14.75 7.586 14.414 7.25 14 7.25H10.5C10.086 7.25 9.75 7.586 9.75 8C9.75 8.414 10.086 8.75 10.5 8.75H14C14.414 8.75 14.75 8.414 14.75 8Z" fill="currentColor"/>
</svg>

<svg xmlns="http://www.w3.org/2000/svg" width="24" height="24" fill="none"><path fill="currentColor" d="M21 11.5v6.75a1.25 1.25 0 0 1-2.5 0V10h1a1.5 1.5 0 0 1 1.5 1.5ZM19 21H6c-2 0-3-1-3-3V6c0-2 1-3 3-3h8c2 0 3 1 3 3v13a2 2 0 0 0 2 2ZM8.03 14.97a.75.75 0 0 0-1.061 0l-.471.471a.75.75 0 0 0-1.029 1.09l.5.5a.748.748 0 0 0 1.06 0l1-1a.75.75 0 0 0 .001-1.061Zm0-4a.75.75 0 0 0-1.061 0l-.471.471a.75.75 0 0 0-1.029 1.09l.5.5a.748.748 0 0 0 1.06 0l1-1a.75.75 0 0 0 .001-1.061Zm0-4a.75.75 0 0 0-1.061 0l-.471.471a.75.75 0 0 0-1.029 1.09l.5.5a.748.748 0 0 0 1.06 0l1-1A.75.75 0 0 0 8.03 6.97ZM14.75 16a.75.75 0 0 0-.75-.75h-3.5a.75.75 0 0 0 0 1.5H14a.75.75 0 0 0 .75-.75Zm0-4a.75.75 0 0 0-.75-.75h-3.5a.75.75 0 0 0 0 1.5H14a.75.75 0 0 0 .75-.75Zm0-4a.75.75 0 0 0-.75-.75h-3.5a.75.75 0 0 0 0 1.5H14a.75.75 0 0 0 .75-.75Z"/></svg>
